src/assets/icons/vehicle/horn.svg

<?xml version="1.0" encoding="UTF-8"?>
<svg id="Layer_2" data-name="Layer 2" xmlns="http://www.w3.org/2000/svg" viewBox="0 0 400 228">
  <path d="m400,121s0,13-13,13h-240s-47,0-47,47,47,47,47,47h146s74,0,74-74-74-73-74-73h-120s-106,0-173-81v188s67-80,173-80h120s46,0,47,46c1.02,46.99-47,47-47,47h-146s-20,0-20-20,20-20,20-20h240s13,0,13,13v-53Z"/>
</svg>

<?xml version="1.0" encoding="UTF-8" standalone="no"?>
<!DOCTYPE svg PUBLIC "-//W3C//DTD SVG 1.1//EN" "http://www.w3.org/Graphics/SVG/1.1/DTD/svg11.dtd">
<svg width="100%" height="100%" viewBox="0 0 400 400" version="1.1" xmlns="http://www.w3.org/2000/svg" xmlns:xlink="http://www.w3.org/1999/xlink" xml:space="preserve" xmlns:serif="http://www.serif.com/" style="fill-rule:evenodd;clip-rule:evenodd;stroke-linejoin:round;stroke-miterlimit:2;">
    <g transform="matrix(-1,0,0,1,200,194)">
        <g id="icon">
            <g id="horn.svg" transform="matrix(1,0,0,1,-200,-114)">
                <path d="M400,121C400,121 400,134 387,134L147,134C147,134 100,134 100,181C100,228 147,228 147,228L293,228C293,228 367,228 367,154C367,80 293,81 293,81L173,81C173,81 67,81 0,0L0,188C0,188 67,108 173,108L293,108C293,108 339,108 340,154C341.02,200.99 293,201 293,201L147,201C147,201 127,201 127,181C127,161 147,161 147,161L387,161C387,161 400,161 400,174L400,121Z" style="fill-rule:nonzero;"/>
            </g>
            <g id="horn.svg1" serif:id="horn.svg">
            </g>
        </g>
    </g>
</svg>
